X:670
T: Coogan's Barn
C: BB
N: To commemorate the Coogan Family's pleasant visit to Cape Cod 8/02
L: 1/8
M: 4/4
Q: 315
R: hornpipe %barndance
K: G
z2|"G"GDGA BcBA |"G"GABG "C"(3EGE "D"D2|"G"GABd "Em"gedB |"Am"ABcA "D"F2 Ac |
"G"GDGA BcBA | "G"GABG "C"(3EGE "D"D2 | "G"BcdB "Bm"ADFB |"D"A2 "G"G2 G2 :|
Bc |"G"dgfg "Em"edcB | "Am"ceae "A"^ceae |"D"fgfe defg |"Am"afge "D"d2 Bc|
"G"dgfg "Em"edcB|"Am"ceae "A"^ceae|"D"fdAF DFAc|"G"B2 G2 G2 :|
